src/main/webapp/data/uga.svg

<svg height="600" width="900" xmlns="http://www.w3.org/2000/svg"><path d="m0 0h900v600h-900z"/><path d="m0 100h900v100h-900z" fill="#fcdc04"/><path d="m0 200h900v100h-900z" fill="#d90000"/><path d="m0 400h900v100h-900z" fill="#fcdc04"/><path d="m0 500h900v100h-900z" fill="#d90000"/><circle cx="450" cy="300" fill="#fff" r="93.5"/><g stroke="#000"><path d="m433.52031 228.39062-6.06438-11.17029c2.34014-2.34013 6.27719-4.14905 12.55357-4.14905 0 .42563-.63844 12.23435-.63844 12.23435z" fill="#d90000"/><path d="m439.37106 225.41204.85125-12.34076s12.55357-.74404 19.36199 7.44685c.1064-.1064-6.70201 9.57418-6.70201 9.57418z" fill="#fcdc04"/><path d="m453.0951 229.98591 6.16998-9.57418c4.14905 4.36187 5.85075 7.44685 6.48919 12.12794.10641.10641-9.78699 2.44655-9.78699 2.34014s-2.76577-4.7875-2.87218-4.8939z" fill="#d90000"/><path d="m436.60529 388.07318s11.59591-13.29842 34.14929-10.42544c-3.40421-5.53234-14.36168-4.8939-14.36168-4.8939s-3.4042-25.85118-.74484-27.12806c2.65935-1.27688 13.93604.10641 13.93604.10641 1.48889 0 4.04265-4.04265 2.02173-6.5956-2.02173-2.55377-7.97889-12.34076-5.53234-14.25608 2.44736-1.91451 15.74496 1.06406 15.74496 1.06406l-37.55349-48.08533s-3.82983-18.0851 3.82983-26.80884c9.25578-7.65967 8.29811-15.95778 7.97889-15.85137-1.27688-8.40452-14.04245-14.46889-22.65978-6.70201-5.10672 6.16998-1.70251 10.85106-1.70251 10.85106s-13.40401 3.61702-13.93605 5.95716c-.53203 2.34095 15.10652-.42481 15.10652-.42481l-1.48969 10.74465s-30.42586 27.65928-7.12764 51.59595c.21282-.10641.74485-1.06407.74485-1.06407s8.1917 10.10703 16.80822 12.34076c8.0853 8.29811 7.34126 7.02123 7.34126 7.02123s1.59529 13.0856.10641 15.63855c-2.02173-.63844-22.65979-1.38247-25.74558-.21281-2.76577.85126-13.40402.31922-10.74466 17.66029 2.02092-4.68109 3.82984-8.83015 3.82984-8.83015s-.31922 6.27638 2.23454 8.51093c-.42563-6.59641 2.44654-11.06388 2.44654-11.06388s.53204 7.23404 2.12733 8.2973c1.5961 1.06407 1.5961-11.70232 10.42625-10.63825 8.82933 1.06407 15.21293.74485 15.21293.74485s2.97858 24.99992 2.02091 27.34087c-6.3836-1.48969-21.59571.63844-22.55337 4.46828 8.93573-.53204 13.0856.53122 13.0856.53122s-7.23404 6.3836-5.00031 10.10703z"/><path d="m440.19145 251.66041s-22.13913 24.4021-12.58769 43.07528c.50848-2.60412.28673-4.24003.60595-4.13362-.53203-.31922 2.74546 2.24673 2.49609 1.74718.06986-1.34998-.99827-4.24327-.99827-4.24327.99827.24936 1.99736.49954 2.99564.7489-.5824-1.08193-1.16561-2.16306-1.748-3.245 1.41497.16652 2.82912.33222 4.24409.49873 0 0-1.49782-3.99391-.99828-3.99391.49874 0 3.49437.24937 3.49437.24937-6.29587-11.29862-.35658-20.68192 2.4961-30.70366z" fill="#9ca69c" stroke="#9ca69c"/><path d="m447.88198 230.73075s1.17048 8.40452-3.40421 10.85107c-.74484.53203-3.61702 1.48969-3.19139 3.1922.53203 2.34014 1.8081 1.91451 3.61702 1.48888 4.78668-.85125 10.31903-11.06387 2.97858-15.53215z" fill="#9ca69c" stroke="#9ca69c"/><circle cx="438" cy="238" fill="#fff" r="1.8" stroke="none"/><path d="m432.56264 244.98602c-1.17047.95766-7.34044 7.34126-1.27688 9.6814 6.27719-1.70251 4.57468-2.87217 5.95797-4.25546.03574-2.87217-3.12072-3.61702-4.68109-5.42594z" fill="#d90000"/><path d="m445.96666 305.30652c-.31922 1.38329-1.7017 6.48919.21281 10.42543 5.31953-2.23373 7.76608-1.5961 9.57499-.42562-4.36105-3.51062-6.06356-5.00031-9.7878-9.99981z" fill="#9ca69c" stroke="#9ca69c"/><path d="m455.11602 329.45519.31922 11.91513s4.14906.74485 6.06357 0c1.91532-.74485-.10641-8.29811-6.38279-11.91513z" fill="#fff" stroke="#fff"/><path d="m485.22266 330.94488s-7.65967-18.51073-27.23447-23.19181c-19.57479-4.68109-17.02184-25.53196-15.42574-26.80884.85126-1.80892 1.4897-4.57469 7.12763-1.91452 5.63875 2.65936 31.59634 15.74416 35.31977 16.3826 3.72342.63844.53203 35.9582.21281 35.53257z" fill="#9ca69c"/><path d="m466.60552 307.64666c-.31922.21281 26.1704 15.63774 18.19151 28.93616 7.55408-5.00031 5.10672-13.72323 5.10672-13.72323s6.16997 16.06418-8.83014 23.93667c1.5961 1.38328 2.66017 1.06325 2.66017 1.06325l-2.55377 2.55377s-1.17047 1.91451 8.93655-2.9794c-2.76657 2.23455-2.97858 3.82984-2.97858 3.82984s.74404 2.12813 7.34045-3.61702c-5.31953 5.74515-6.49 8.72373-6.49 8.61733 14.36167-1.27688 45.63879-47.97893-9.8934-61.80938 2.97939 3.08579 2.55295 2.66017 2.55295 2.66017z" fill="#d90000"/><path d="m467.776 303.07198c3.61702 2.55295 4.89309 3.4042 5.31872 4.68109-3.2978-.74404-6.27638-.53204-6.27638-.53204s-7.12764-6.80841-8.40452-7.34045c-.95766 0-6.48919-3.51061-6.48919-3.51061-2.76577-1.38329-5.31872-10.95747 4.8939-8.1917 10.53103 4.99949 12.02073 5.42593 12.02073 5.42593 4.18479 1.31181 8.36877 2.62444 12.55357 3.93624 2.41161 2.6951 4.82242 5.3902 7.23404 8.0853 0 0-12.87198-6.3836-14.46808-6.49 3.51061 2.87217 5.53234 6.80841 5.53234 6.80841-4.07839-1.17048-7.62393-2.23373-11.91513-2.87217z" fill="#fff"/><path d="m417.66893 245.94368s12.34076-2.97858 13.82965-2.55295" stroke="#fff"/></g></svg>

<?xml version="1.0" encoding="UTF-8"?>
<svg xmlns="http://www.w3.org/2000/svg" width="900" height="600">
	<rect width="900" height="600"/>
	<rect y="100" width="900" height="100" fill="#fcdc04"/>
	<rect y="200" width="900" height="100" fill="#d90000"/>
	<rect y="400" width="900" height="100" fill="#fcdc04"/>
	<rect y="500" width="900" height="100" fill="#d90000"/>
	<circle cx="450" cy="300" r="93.5" fill="#fff"/>
	<g stroke="#000">
		<path d="M 433.52031,228.39062 L 427.45593,217.22033 C 429.79607,214.8802 433.73312,213.07128 440.0095,213.07128 C 440.0095,213.49691 439.37106,225.30563 439.37106,225.30563 z" fill="#d90000"/>
		<path d="M 439.37106,225.41204 L 440.22231,213.07128 C 440.22231,213.07128 452.77588,212.32724 459.5843,220.51813 C 459.6907,220.41173 452.88229,230.09231 452.88229,230.09231 z" fill="#fcdc04"/>
		<path d="M 453.0951,229.98591 L 459.26508,220.41173 C 463.41413,224.7736 465.11583,227.85858 465.75427,232.53967 C 465.86068,232.64608 455.96728,234.98622 455.96728,234.87981 C 455.96728,234.7734 453.20151,230.09231 453.0951,229.98591 z" fill="#d90000"/>
		<path d="M 436.60529,388.07318 C 436.60529,388.07318 448.2012,374.77476 470.75458,377.64774 C 467.35037,372.1154 456.3929,372.75384 456.3929,372.75384 C 456.3929,372.75384 452.9887,346.90266 455.64806,345.62578 C 458.30741,344.3489 469.5841,345.73219 469.5841,345.73219 C 471.07299,345.73219 473.62675,341.68954 471.60583,339.13659 C 469.5841,336.58282 463.62694,326.79583 466.07349,324.88051 C 468.52085,322.966 481.81845,325.94457 481.81845,325.94457 L 444.26496,277.85924 C 444.26496,277.85924 440.43513,259.77414 448.09479,251.0504 C 457.35057,243.39073 456.3929,235.09262 456.07368,235.19903 C 454.7968,226.79451 442.03123,220.73014 433.4139,228.49702 C 428.30718,234.667 431.71139,239.34808 431.71139,239.34808 C 431.71139,239.34808 418.30738,242.9651 417.77534,245.30524 C 417.24331,247.64619 432.88186,244.88043 432.88186,244.88043 L 431.39217,255.62508 C 431.39217,255.62508 400.96631,283.28436 424.26453,307.22103 C 424.47735,307.11462 425.00938,306.15696 425.00938,306.15696 C 425.00938,306.15696 433.20108,316.26399 441.8176,318.49772 C 449.9029,326.79583 449.15886,325.51895 449.15886,325.51895 C 449.15886,325.51895 450.75415,338.60455 449.26527,341.1575 C 447.24354,340.51906 426.60548,339.77503 423.51969,340.94469 C 420.75392,341.79595 410.11567,341.26391 412.77503,358.60498 C 414.79595,353.92389 416.60487,349.77483 416.60487,349.77483 C 416.60487,349.77483 416.28565,356.05121 418.83941,358.28576 C 418.41378,351.68935 421.28595,347.22188 421.28595,347.22188 C 421.28595,347.22188 421.81799,354.45592 423.41328,355.51918 C 425.00938,356.58325 425.00938,343.81686 433.83953,344.88093 C 442.66886,345.945 449.05246,345.62578 449.05246,345.62578 C 449.05246,345.62578 452.03104,370.6257 451.07337,372.96665 C 444.68977,371.47696 429.47766,373.60509 428.52,377.43493 C 437.45573,376.90289 441.6056,377.96615 441.6056,377.96615 C 441.6056,377.96615 434.37156,384.34975 436.60529,388.07318 z"/>
		<path d="M 440.19145,251.66041 C 440.19145,251.66041 418.05232,276.06251 427.60376,294.73569 C 428.11224,292.13157 427.89049,290.49566 428.20971,290.60207 C 427.67768,290.28285 430.95517,292.8488 430.7058,292.34925 C 430.77566,290.99927 429.70753,288.10598 429.70753,288.10598 C 430.7058,288.35534 431.70489,288.60552 432.70317,288.85488 C 432.12077,287.77295 431.53756,286.69182 430.95517,285.60988 C 432.37014,285.7764 433.78429,285.9421 435.19926,286.10861 C 435.19926,286.10861 433.70144,282.1147 434.20098,282.1147 C 434.69972,282.1147 437.69535,282.36407 437.69535,282.36407 C 431.39948,271.06545 437.33877,261.68215 440.19145,251.66041 z" fill="#9ca69c" stroke="#9ca69c"/>
		<path d="M 447.88198,230.73075 C 447.88198,230.73075 449.05246,239.13527 444.47777,241.58182 C 443.73293,242.11385 440.86075,243.07151 441.28638,244.77402 C 441.81841,247.11416 443.09448,246.68853 444.9034,246.2629 C 449.69008,245.41165 455.22243,235.19903 447.88198,230.73075 z" fill="#9ca69c" stroke="#9ca69c"/>
		<circle cx="438" cy="238" r="1.8" fill="#fff" stroke="none"/>
		<path d="M 432.56264,244.98602 C 431.39217,245.94368 425.2222,252.32728 431.28576,254.66742 C 437.56295,252.96491 435.86044,251.79525 437.24373,250.41196 C 437.27947,247.53979 434.12301,246.79494 432.56264,244.98602 z" fill="#d90000"/>
		<path d="M 445.96666,305.30652 C 445.64744,306.68981 444.26496,311.79571 446.17947,315.73195 C 451.499,313.49822 453.94555,314.13585 455.75446,315.30633 C 451.39341,311.79571 449.6909,310.30602 445.96666,305.30652 z" fill="#9ca69c" stroke="#9ca69c"/>
		<path d="M 455.11602,329.45519 L 455.43524,341.37032 C 455.43524,341.37032 459.5843,342.11517 461.49881,341.37032 C 463.41413,340.62547 461.3924,333.07221 455.11602,329.45519 z" fill="#fff" stroke="#fff"/>
		<path d="M 485.22266,330.94488 C 485.22266,330.94488 477.56299,312.43415 457.98819,307.75307 C 438.4134,303.07198 440.96635,282.22111 442.56245,280.94423 C 443.41371,279.13531 444.05215,276.36954 449.69008,279.02971 C 455.32883,281.68907 481.28642,294.77387 485.00985,295.41231 C 488.73327,296.05075 485.54188,331.37051 485.22266,330.94488 z" fill="#9ca69c"/>
		<path d="M 466.60552,307.64666 C 466.2863,307.85947 492.77592,323.2844 484.79703,336.58282 C 492.35111,331.58251 489.90375,322.85959 489.90375,322.85959 C 489.90375,322.85959 496.07372,338.92377 481.07361,346.79626 C 482.66971,348.17954 483.73378,347.85951 483.73378,347.85951 L 481.18001,350.41328 C 481.18001,350.41328 480.00954,352.32779 490.11656,347.43388 C 487.34999,349.66843 487.13798,351.26372 487.13798,351.26372 C 487.13798,351.26372 487.88202,353.39185 494.47843,347.6467 C 489.1589,353.39185 487.98843,356.37043 487.98843,356.26403 C 502.3501,354.98715 533.62722,308.2851 478.09503,294.45465 C 481.07442,297.54044 480.64798,297.11482 480.64798,297.11482 z" fill="#d90000"/>
		<path d="M 467.776,303.07198 C 471.39302,305.62493 472.66909,306.47618 473.09472,307.75307 C 469.79692,307.00903 466.81834,307.22103 466.81834,307.22103 C 466.81834,307.22103 459.6907,300.41262 458.41382,299.88058 C 457.45616,299.88058 451.92463,296.36997 451.92463,296.36997 C 449.15886,294.98668 446.60591,285.4125 456.81853,288.17827 C 467.34956,293.17776 468.83926,293.6042 468.83926,293.6042 C 473.02405,294.91601 477.20803,296.22864 481.39283,297.54044 C 483.80444,300.23554 486.21525,302.93064 488.62687,305.62574 C 488.62687,305.62574 475.75489,299.24214 474.15879,299.13574 C 477.6694,302.00791 479.69113,305.94415 479.69113,305.94415 C 475.61274,304.77367 472.0672,303.71042 467.776,303.07198 z" fill="#fff"/>
		<path d="M 417.66893,245.94368 C 417.66893,245.94368 430.00969,242.9651 431.49858,243.39073" stroke="#fff"/>
	</g>
</svg>
